icons/svg/seamark/radar_reflector_additional_night.svg

<?xml version="1.0" encoding="UTF-8" standalone="no"?>
<svg
   xmlns:dc="http://purl.org/dc/elements/1.1/"
   xmlns:cc="http://creativecommons.org/ns#"
   xmlns:rdf="http://www.w3.org/1999/02/22-rdf-syntax-ns#"
   xmlns:svg="http://www.w3.org/2000/svg"
   xmlns="http://www.w3.org/2000/svg"
   xmlns:sodipodi="http://sodipodi.sourceforge.net/DTD/sodipodi-0.dtd"
   xmlns:inkscape="http://www.inkscape.org/namespaces/inkscape"
   width="580"
   height="580"
   id="svg2"
   version="1.1"
   inkscape:version="0.48.4 r9939"
   sodipodi:docname="radar_reflector_additional.svg">
  <defs
     id="defs13">
    <inkscape:path-effect
       effect="gears"
       id="path-effect3774"
       is_visible="true"
       teeth="6"
       phi="-1.2" />
    <inkscape:path-effect
       effect="bend_path"
       id="path-effect3772"
       is_visible="false"
       bendpath="m 95.790098,316.51174 c 144.429032,-206.42506 223.313032,-11.7428 339.548092,0"
       prop_scale="1.19"
       scale_y_rel="false"
       vertical="false"
       bendpath-nodetypes="cc" />
  </defs>
  <sodipodi:namedview
     pagecolor="#ffffff"
     bordercolor="#666666"
     borderopacity="1"
     objecttolerance="10"
     gridtolerance="10"
     guidetolerance="10"
     inkscape:pageopacity="0"
     inkscape:pageshadow="2"
     inkscape:window-width="1920"
     inkscape:window-height="1004"
     id="namedview11"
     showgrid="false"
     inkscape:zoom="0.70710678"
     inkscape:cx="541.39494"
     inkscape:cy="368.01957"
     inkscape:window-x="1680"
     inkscape:window-y="0"
     inkscape:window-maximized="1"
     inkscape:current-layer="svg2"
     inkscape:object-nodes="true"
     inkscape:object-paths="false"
     inkscape:snap-midpoints="false"
     inkscape:snap-smooth-nodes="false"
     inkscape:snap-object-midpoints="true" />
  <metadata
     id="metadata2975">image/svg+xmlen<rdf:RDF>
  <cc:Work
     rdf:about="">
    <dc:format>image/svg+xml</dc:format>
    <dc:type
       rdf:resource="http://purl.org/dc/dcmitype/StillImage" />
    <dc:title></dc:title>
  </cc:Work>
</rdf:RDF>
</metadata>
  <path
     style="opacity:0.83043482000000002;fill:#e0e0e0;fill-opacity:1;stroke:none;color:#000000;fill-rule:nonzero;stroke-width:1;marker:none;visibility:visible;display:inline;overflow:visible;enable-background:accumulate"
     d="m 505.66762,144.26393 c -20.31026,16.1273 -29.79479,22.17871 -50.2339,37.68074 19.85691,23.52029 33.81333,52.57519 39.13876,85.21601 3.15759,19.35357 3.03585,38.47132 0.0523,56.79522 24.25002,2.83679 37.78448,4.6582 62.05257,7.30532 9.69307,-1.3963 12.1138,-15.22539 2.17432,-19.85927 l -40.98301,-4.50521 c 0.81463,-14.15399 0.11423,-28.60462 -2.2618,-43.16787 -0.6014,-3.68611 -1.30332,-7.32679 -2.09981,-10.9295 l 40.73885,-10.56482 c 7.61868,-4.11314 3.64021,-19.83518 -5.33349,-19.29928 l -40.70297,10.59062 c -5.79514,-17.54368 -13.93463,-33.87394 -23.99512,-48.67768 l 33.49236,-24.62712 c 6.17727,-8.35212 -2.70486,-19.56902 -12.03907,-15.95716 z"
     id="path3841"
     inkscape:connector-curvature="0"
     sodipodi:nodetypes="ccsccccsccccccc"
     inkscape:transform-center-x="-322.55123"
     inkscape:transform-center-y="-89.140627" />
</svg>

<svg width="580" height="580" viewBox="0 0 580 580" fill="none" xmlns="http://www.w3.org/2000/svg">
<path opacity="0.830435" d="M505.668 144.264C485.357 160.392 475.873 166.443 455.434 181.945C475.291 205.465 489.247 234.52 494.572 267.161C497.73 286.515 497.608 305.632 494.625 323.956C518.875 326.793 532.409 328.614 556.677 331.262C566.37 329.865 568.791 316.036 558.852 311.402L517.869 306.897C518.683 292.743 517.983 278.292 515.607 263.729C515.005 260.043 514.303 256.402 513.507 252.8L554.246 242.235C561.864 238.122 557.886 222.4 548.912 222.936L508.209 233.526C502.414 215.983 494.275 199.652 484.214 184.848L517.707 160.221C523.884 151.869 515.002 140.652 505.667 144.264H505.668Z" fill="#E0E0E0"/>
</svg>
